X: 164
T: Flo
M:3/4
C:Roy 
R:
L:1/8
Z:added by Alf 
K:D
g2| f4 e2| d6| A6-|A4 A2|\
d4 f2| e6-|e4 e2| e2 d2 e2|
f6-|f4 f2| g2 f2 g2|\
a6| d6-|d4 f2| e4 e2|
e2 d2 e2| f4 g2| f4 e2| d6|\
A6-|A4 f2| g2 f2 g2| a6|
d6-|d4 f2| g2 f2 e2| f4 e2|\
d6-|d4 d2| =c4 e2| d6-|d4:|
